public/Canva.svg

<svg width="100" height="48" viewBox="0 0 100 48" fill="none" xmlns="http://www.w3.org/2000/svg">
<path fill-rule="evenodd" clip-rule="evenodd" d="M22.3997 41.6001C24.3162 40.4106 25.927 38.959 27.2897 37.4474C28.2655 39.44 30.2235 40.8001 32.2998 40.8001C33.8998 40.8001 35.4998 40.0001 36.5998 38.5001C36.9998 39.9001 37.9998 40.8001 39.6998 40.8001C40.9755 40.8001 43.7567 39.4982 46.2784 37.569L45.9997 39.0001C45.8997 39.4001 45.8997 39.7001 45.8997 39.9001C45.9997 40.5001 46.3997 40.8001 46.9997 40.8001C48.1997 40.8001 49.8997 39.7001 50.2997 37.9001L50.8997 35.4001C51.5997 32.2001 56.2997 27.4001 57.5997 27.4001C57.6997 27.4001 57.8997 27.5001 57.8997 27.7001C57.9393 28.0176 57.7112 28.6187 57.3779 29.497C56.8714 30.8318 56.1218 32.8068 55.6997 35.4001C55.4997 36.2001 55.4997 37.0001 55.5997 37.6001C55.7997 39.5001 56.8997 40.8001 58.9997 40.8001C60.7968 40.8001 64.6931 39.2661 67.424 36.198C67.6298 37.8634 67.9821 39.2799 68.4997 40.2001C68.6997 40.6001 69.1997 40.7001 69.6997 40.7001C70.2997 40.7001 71.0997 40.5001 71.9997 40.0001C74.0997 38.9001 76.7997 36.3001 79.3997 32.5001C79.7997 32.6001 80.0997 32.6001 80.3997 32.6001C81.4373 32.6001 82.597 32.2339 83.6737 31.586C83.2262 32.9373 83.0518 34.3174 83.1998 35.6001C83.5998 38.6001 86.0998 40.9001 88.7998 40.9001C90.2998 40.9001 91.8998 40.0001 92.9998 38.6001C93.3998 40.5001 94.5998 42.5001 97.5998 43.7001C97.7998 43.8001 97.9997 43.8001 98.1998 43.8001C98.7998 43.8001 99.1998 43.4001 99.0998 42.9001C99.0998 42.7001 98.9997 42.4001 98.6998 42.2001C97.9997 41.6001 97.1998 40.5001 96.9998 38.8001C96.8998 38.0001 96.8998 37.0001 97.3998 36.0001C97.9998 33.3001 98.0998 32.5001 98.0998 32.2001C97.9998 31.5001 97.4998 31.2001 96.8998 31.2001C95.6998 31.2001 93.9998 32.4001 93.5998 34.1001C92.8997 36.7001 91.0998 38.4001 89.8998 38.4001C88.3998 38.4001 87.5998 36.8001 87.3998 35.1001C86.8998 30.9001 89.4998 25.8001 93.3998 25.8001C94.4998 25.8001 95.7998 26.2001 95.8998 27.4001C96.0226 28.5061 95.3527 28.7815 94.841 28.9918C94.52 29.1238 94.2612 29.2302 94.2998 29.5001C94.3998 30.3001 95.6998 30.5001 96.5998 30.5001C97.3997 30.5001 99.9998 29.9001 99.5998 27.0001C99.2998 24.7001 96.7998 23.6001 93.9998 23.6001C90.6572 23.6001 87.8124 25.2925 85.8752 27.6344C85.6073 27.7926 85.3246 28.0752 84.9997 28.4001C84.3997 29.1001 83.1997 29.8001 81.6997 29.8001C81.4997 29.8001 81.0997 29.7001 81.0997 29.7001C82.0997 27.8001 82.7997 25.8001 82.7997 24.1001C82.7997 21.3001 81.0997 19.9001 79.1997 19.9001C76.7997 19.9001 74.2997 22.0001 74.2997 26.2001C74.2997 28.7001 75.2997 30.7001 76.9997 31.8001C74.9997 35.0001 72.2997 37.7001 71.8997 37.7001C71.7616 37.7001 71.7189 37.5571 71.6727 37.4028C71.652 37.3336 71.6307 37.2621 71.5997 37.2001C71.2997 36.1001 70.9997 33.9001 70.9997 32.6001C70.9997 30.2001 71.3997 27.8001 72.2997 25.3001C72.3997 25.0001 72.4997 24.7001 72.4997 24.5001C72.4997 23.8001 71.9997 23.5001 71.3997 23.5001C70.1997 23.5001 68.2997 24.9001 67.7997 26.4001C67.3997 27.8001 67.1997 29.8001 67.1997 32.2001C67.1997 32.6403 67.2068 33.0769 67.2213 33.5068C64.8348 36.7239 61.8899 37.8001 60.9997 37.8001C59.8997 37.8001 59.6997 36.8001 59.8997 36.4001C60.5997 33.5001 61.4997 30.2001 62.2997 27.9001C62.6997 26.8001 62.8997 25.8001 62.7997 25.2001C62.5997 24.1001 61.8997 23.6001 60.8997 23.6001C58.4997 23.6001 54.6997 26.0001 52.1997 29.3001L52.9997 25.7001C53.0997 25.3001 53.0997 25.0001 53.0997 24.8001C52.9997 24.1001 52.5997 23.8001 51.9997 23.8001C49.1997 23.8001 48.6997 25.2001 48.3997 26.6001C48.3417 26.9476 47.5459 31.0518 46.8863 34.4447C44.7524 36.4031 42.3614 37.7001 41.6998 37.7001C40.8998 37.7001 40.5998 37.1001 40.5998 36.6001C40.5998 36.2548 40.7985 35.3132 40.9863 34.4236C41.1248 33.7676 41.2573 33.1397 41.2998 32.8001C41.3998 32.4001 41.3998 32.1001 41.3998 31.9001C41.2998 31.3001 40.7998 31.0001 40.1998 31.0001C38.9998 31.0001 37.2998 32.2001 36.8998 33.9001C36.2998 36.5001 34.4998 38.2001 33.2998 38.2001C31.7998 38.2001 30.9998 36.6001 30.7998 35.0001C30.2998 31.4001 32.5998 25.6001 36.7998 25.6001C37.9998 25.6001 39.1998 26.0001 39.2998 27.2001C39.4209 28.3506 38.8087 28.6211 38.3291 28.8331C38.0166 28.9713 37.7603 29.0845 37.7998 29.4001C37.8998 30.2001 39.1998 30.4001 39.9998 30.4001C40.8998 30.4001 43.3998 29.8001 42.9998 26.9001C42.6998 24.6001 40.2998 23.4001 37.3998 23.4001C30.6739 23.4001 26.1982 30.0526 26.682 35.3262C24.9739 37.325 23.2674 38.5269 20.1997 40.1001C18.4997 41.0001 16.4997 41.5001 14.6997 41.5001C9.09971 41.5001 6.39971 36.4001 5.89971 32.0001C4.49971 20.8001 14.4997 5.3001 21.3997 5.3001C22.9997 5.3001 24.3997 6.7001 24.6997 8.9001C25.0997 12.3001 24.9997 14.7001 21.4997 17.6001C21.0997 17.9001 20.9997 18.4001 21.1997 18.7001C21.4997 19.1001 22.4997 19.2001 24.3997 18.2001C28.1997 16.3001 29.4997 13.4001 29.0997 10.0001C28.6997 6.2001 25.3997 3.1001 20.9997 3.1001C18.7997 3.1001 16.4997 3.7001 14.3997 5.0001C5.29971 10.6001 -0.600288 23.2001 0.499712 32.8001C0.899712 35.9001 2.19971 39.2001 4.59971 41.5001C6.19971 43.0001 9.09971 44.8001 12.5997 44.8001C16.3997 44.8001 19.5997 43.4001 22.3997 41.6001ZM78.5997 28.4001C77.5997 27.3001 76.7997 25.6001 76.7997 24.0001C76.7997 23.1001 77.0997 22.1001 77.7997 22.1001C78.3997 22.1001 79.1997 23.0001 79.1997 25.1001C79.1997 26.2001 78.9997 27.3001 78.5997 28.4001Z" fill="#24BECA"/>
</svg>

<svg width="100" height="48" fill="none" xmlns="http://www.w3.org/2000/svg"><path fill-rule="evenodd" clip-rule="evenodd" d="M22.4 41.6c1.916-1.19 3.527-2.641 4.89-4.153.976 1.993 2.934 3.353 5.01 3.353 1.6 0 3.2-.8 4.3-2.3.4 1.4 1.4 2.3 3.1 2.3 1.275 0 4.057-1.302 6.578-3.231L46 39c-.1.4-.1.7-.1.9.1.6.5.9 1.1.9 1.2 0 2.9-1.1 3.3-2.9l.6-2.5c.7-3.2 5.4-8 6.7-8 .1 0 .3.1.3.3.04.318-.189.919-.522 1.797-.507 1.335-1.256 3.31-1.678 5.903-.2.8-.2 1.6-.1 2.2.2 1.9 1.3 3.2 3.4 3.2 1.797 0 5.693-1.534 8.424-4.602.206 1.665.558 3.082 1.076 4.002.2.4.7.5 1.2.5.6 0 1.4-.2 2.3-.7 2.1-1.1 4.8-3.7 7.4-7.5.4.1.7.1 1 .1 1.037 0 2.197-.366 3.274-1.014-.448 1.351-.622 2.731-.474 4.014.4 3 2.9 5.3 5.6 5.3 1.5 0 3.1-.9 4.2-2.3.4 1.9 1.6 3.9 4.6 5.1.2.1.4.1.6.1.6 0 1-.4.9-.9 0-.2-.1-.5-.4-.7-.7-.6-1.5-1.7-1.7-3.4-.1-.8-.1-1.8.4-2.8.6-2.7.7-3.5.7-3.8-.1-.7-.6-1-1.2-1-1.2 0-2.9 1.2-3.3 2.9-.7 2.6-2.5 4.3-3.7 4.3-1.5 0-2.3-1.6-2.5-3.3-.5-4.2 2.1-9.3 6-9.3 1.1 0 2.4.4 2.5 1.6.123 1.106-.547 1.382-1.059 1.592-.321.132-.58.238-.541.508.1.8 1.4 1 2.3 1 .8 0 3.4-.6 3-3.5-.3-2.3-2.8-3.4-5.6-3.4-3.343 0-6.188 1.692-8.125 4.034-.268.159-.55.441-.875.766-.6.7-1.8 1.4-3.3 1.4-.2 0-.6-.1-.6-.1 1-1.9 1.7-3.9 1.7-5.6 0-2.8-1.7-4.2-3.6-4.2-2.4 0-4.9 2.1-4.9 6.3 0 2.5 1 4.5 2.7 5.6-2 3.2-4.7 5.9-5.1 5.9-.138 0-.181-.143-.227-.297a1.319 1.319 0 0 0-.073-.203c-.3-1.1-.6-3.3-.6-4.6 0-2.4.4-4.8 1.3-7.3.1-.3.2-.6.2-.8 0-.7-.5-1-1.1-1-1.2 0-3.1 1.4-3.6 2.9-.4 1.4-.6 3.4-.6 5.8 0 .44.007.877.021 1.307C64.835 36.724 61.89 37.8 61 37.8c-1.1 0-1.3-1-1.1-1.4.7-2.9 1.6-6.2 2.4-8.5.4-1.1.6-2.1.5-2.7-.2-1.1-.9-1.6-1.9-1.6-2.4 0-6.2 2.4-8.7 5.7l.8-3.6c.1-.4.1-.7.1-.9-.1-.7-.5-1-1.1-1-2.8 0-3.3 1.4-3.6 2.8-.058.348-.854 4.452-1.514 7.845-2.134 1.958-4.525 3.255-5.186 3.255-.8 0-1.1-.6-1.1-1.1 0-.345.198-1.287.386-2.176.139-.656.271-1.284.314-1.624.1-.4.1-.7.1-.9-.1-.6-.6-.9-1.2-.9-1.2 0-2.9 1.2-3.3 2.9-.6 2.6-2.4 4.3-3.6 4.3-1.5 0-2.3-1.6-2.5-3.2-.5-3.6 1.8-9.4 6-9.4 1.2 0 2.4.4 2.5 1.6.12 1.15-.491 1.421-.97 1.633-.313.138-.57.252-.53.567.1.8 1.4 1 2.2 1 .9 0 3.4-.6 3-3.5-.3-2.3-2.7-3.5-5.6-3.5-6.726 0-11.202 6.653-10.718 11.926-1.708 1.999-3.415 3.2-6.482 4.774-1.7.9-3.7 1.4-5.5 1.4-5.6 0-8.3-5.1-8.8-9.5C4.5 20.8 14.5 5.3 21.4 5.3c1.6 0 3 1.4 3.3 3.6.4 3.4.3 5.8-3.2 8.7-.4.3-.5.8-.3 1.1.3.4 1.3.5 3.2-.5 3.8-1.9 5.1-4.8 4.7-8.2-.4-3.8-3.7-6.9-8.1-6.9-2.2 0-4.5.6-6.6 1.9C5.3 10.6-.6 23.2.5 32.8c.4 3.1 1.7 6.4 4.1 8.7 1.6 1.5 4.5 3.3 8 3.3 3.8 0 7-1.4 9.8-3.2Zm56.2-13.2c-1-1.1-1.8-2.8-1.8-4.4 0-.9.3-1.9 1-1.9.6 0 1.4.9 1.4 3 0 1.1-.2 2.2-.6 3.3Z" fill="#24BECA"/></svg>
